public/part-of-my-journey/vertikal.svg

<svg width="298" height="56" viewBox="0 0 298 56" fill="none" xmlns="http://www.w3.org/2000/svg">
<g clip-path="url(#clip0_14_17)">
<path d="M79.8 11.8L87.9 37.2H88.2L96.3 11.8H104.1L92.6 45.3H83.5L72 11.8H79.8Z" fill="#000A4F"/>
<path d="M108.2 45.3V11.8H130.7V17.6H115.2V25.6H129.5V31.4H115.2V39.4H130.7V45.2H108.2V45.3Z" fill="#000A4F"/>
<path d="M136.3 45.3V11.8H149.5C152 11.8 154.2 12.2 156 13.1C157.8 14 159.2 15.3 160.1 16.9C161 18.5 161.5 20.5 161.5 22.7C161.5 24.9 161 26.8 160.1 28.4C159.1 30 157.8 31.2 155.9 32.1C154 33 151.9 33.4 149.3 33.4H140.5V27.7H148.2C149.5 27.7 150.7 27.5 151.6 27.1C152.5 26.7 153.2 26.2 153.6 25.4C154 24.7 154.3 23.7 154.3 22.6C154.3 21.5 154.1 20.6 153.6 19.8C153.2 19 152.5 18.5 151.6 18.1C150.7 17.7 149.6 17.5 148.2 17.5H143.4V45.2H136.3V45.3ZM154.4 30L162.7 45.2H154.9L146.8 30H154.4Z" fill="#000A4F"/>
<path d="M165.2 17.6V11.8H192.7V17.6H182.5V45.2H175.5V17.6H165.2Z" fill="#000A4F"/>
<path d="M204.3 11.8V45.2H197.2V11.8H204.3Z" fill="#000A4F"/>
<path d="M229.3 45.3V35.8L225.8 31.6L216.6 45.3H208.1L220.7 26.8L208.3 11.8H216.8L228.8 26.5H229.2V11.8H236.3V45.2H229.3V45.3Z" fill="#000A4F"/>
<path d="M247.6 45.3H240L251.5 11.9H260.6L272.1 45.3H264.5L256.1 19.5H256L247.6 45.3ZM247.1 32.1H265V37.6H247.1V32.1Z" fill="#000A4F"/>
<path d="M276.2 45.3V11.8H283.3V39.4H297.6V45.2H276.2V45.3Z" fill="#000A4F"/>
<path d="M16.4 17.6C16.4 20 16.8 22.3 17.6 24.5C17.8 25 18.4 25 18.7 24.6L23.4 16.5C23.7 16 24.3 15.6 24.9 15.6H34.8C44.5 15.4 51.6 19.6 55.8 26.2C57.2 28.4 58 30.7 58.5 33.1C58.6 33.6 59.3 33.7 59.6 33.3L60.3 32.1C61.9 29.4 61.9 26.1 60.3 23.4L49.1 3.9C47.7 1.5 45.2 0 42.4 0H28C27.1 0 25.7 0.4 24.9 1C19.7 4.7 16.4 10.7 16.4 17.6Z" fill="url(#paint0_linear_14_17)"/>
<path d="M46.6001 20.3C44.5001 19.1 42.3001 18.3 40.1001 17.9C39.6001 17.8 39.2001 18.3 39.5001 18.8L44.2001 26.9C44.5001 27.4 44.5001 28.1 44.2001 28.7L39.3001 37.3C34.7001 45.8 27.5001 49.9 19.6001 50.2C17.0001 50.3 14.6001 49.9 12.3001 49.2C11.8001 49 11.3001 49.6 11.6001 50.1L12.3001 51.3C13.9001 54 16.7001 55.6 19.8001 55.6H42.3001C45.0001 55.6 47.6001 54.1 48.9001 51.8L56.1001 39.3C56.6001 38.5 56.9001 37 56.8001 36.1C56.1001 29.6 52.5001 23.7 46.6001 20.3Z" fill="url(#paint1_linear_14_17)"/>
<path d="M29.4 45.3C31.5 44.1 33.3 42.6 34.7 40.8C35 40.4 34.8 39.8 34.2 39.8L24.9 39.9C24.3 39.9 23.7 39.6 23.4 39L18.4 30.5C13.4 22.3 13.4 14 16.9 7.00001C18.1 4.70001 19.7 2.80001 21.4 1.20001C21.8 0.800012 21.5 0.200012 21 0.200012H19.6C16.5 0.200012 13.7 1.90001 12.1 4.60001L1.00003 24C-0.39997 26.4 -0.29997 29.3 1.00003 31.7L8.30003 44.4C8.80003 45.2 9.90003 46.2 10.8 46.6C16.6 49.1 23.5 48.7 29.4 45.3Z" fill="url(#paint2_linear_14_17)"/>
</g>
<defs>
<linearGradient id="paint0_linear_14_17" x1="32.1388" y1="12.3963" x2="57.1056" y2="49.8952" gradientUnits="userSpaceOnUse">
<stop stop-color="#0065FF"/>
<stop offset="1" stop-color="#000086"/>
</linearGradient>
<linearGradient id="paint1_linear_14_17" x1="25.1823" y1="58.3191" x2="49.9412" y2="20.3628" gradientUnits="userSpaceOnUse">
<stop stop-color="#00D670"/>
<stop offset="0.1951" stop-color="#00D170"/>
<stop offset="0.4147" stop-color="#00C46F"/>
<stop offset="0.6461" stop-color="#00AD6D"/>
<stop offset="0.8841" stop-color="#008E6A"/>
<stop offset="1" stop-color="#007C69"/>
</linearGradient>
<linearGradient id="paint2_linear_14_17" x1="26.99" y1="44.2646" x2="10.0572" y2="13.8248" gradientUnits="userSpaceOnUse">
<stop stop-color="#FF5033"/>
<stop offset="1" stop-color="#FF7B69"/>
</linearGradient>
<clipPath id="clip0_14_17">
<rect width="297.6" height="55.6" fill="white"/>
</clipPath>
</defs>
</svg>

<?xml version="1.0" encoding="UTF-8"?>
<svg id="Capa_1" xmlns="http://www.w3.org/2000/svg" version="1.1" viewBox="0 0 298 56">
  <!-- Generator: Adobe Illustrator 30.0.0, SVG Export Plug-In . SVG Version: 2.1.1 Build 123)  -->
  <defs>
    <style>
      .st0 {
        fill: #30302e;
      }
    </style>
  </defs>
  <path class="st0" d="M79.8,11.8l8.1,25.4h.3l8.1-25.4h7.8l-11.5,33.5h-9.1l-11.5-33.5s7.8,0,7.8,0Z"/>
  <path class="st0" d="M108.2,45.3V11.8h22.5v5.8h-15.5v8h14.3v5.8h-14.3v8h15.5v5.8h-22.5Z"/>
  <path class="st0" d="M136.3,45.3V11.8h13.2c2.5,0,4.7.4,6.5,1.3,1.8.9,3.2,2.2,4.1,3.8.9,1.6,1.4,3.6,1.4,5.8s-.5,4.1-1.4,5.7c-1,1.6-2.3,2.8-4.2,3.7s-4,1.3-6.6,1.3h-8.8v-5.7h7.7c1.3,0,2.5-.2,3.4-.6s1.6-.9,2-1.7c.4-.7.7-1.7.7-2.8s-.2-2-.7-2.8c-.4-.8-1.1-1.3-2-1.7-.9-.4-2-.6-3.4-.6h-4.8v27.7h-7.1,0ZM154.4,30l8.3,15.2h-7.8l-8.1-15.2h7.6Z"/>
  <path class="st0" d="M165.2,17.6v-5.8h27.5v5.8h-10.2v27.6h-7v-27.6h-10.3Z"/>
  <path class="st0" d="M204.3,11.8v33.4h-7.1V11.8h7.1Z"/>
  <path class="st0" d="M229.3,45.3v-9.5l-3.5-4.2-9.2,13.7h-8.5l12.6-18.5-12.4-15h8.5l12,14.7h.4v-14.7h7.1v33.4h-7Z"/>
  <path class="st0" d="M247.6,45.3h-7.6l11.5-33.4h9.1l11.5,33.4h-7.6l-8.4-25.8h-.1l-8.4,25.8ZM247.1,32.1h17.9v5.5h-17.9v-5.5Z"/>
  <path class="st0" d="M276.2,45.3V11.8h7.1v27.6h14.3v5.8h-21.4Z"/>
  <path class="st0" d="M16.4,17.6c0,2.4.4,4.7,1.2,6.9.2.5.8.5,1.1.1l4.7-8.1c.3-.5.9-.9,1.5-.9h9.9c9.7-.2,16.8,4,21,10.6,1.4,2.2,2.2,4.5,2.7,6.9,0,.5.8.6,1.1.2l.7-1.2c1.6-2.7,1.6-6,0-8.7L49.1,3.9c-1.4-2.4-3.9-3.9-6.7-3.9h-14.4c-.9,0-2.3.4-3.1,1-5.2,3.7-8.5,9.7-8.5,16.6Z"/>
  <path class="st0" d="M46.6,20.3c-2.1-1.2-4.3-2-6.5-2.4-.5-.1-.9.4-.6.9l4.7,8.1c.3.5.3,1.2,0,1.8l-4.9,8.6c-4.6,8.5-11.8,12.6-19.7,12.9-2.6,0-5-.3-7.3-1-.5-.2-1,.4-.7.9l.7,1.2c1.6,2.7,4.4,4.3,7.5,4.3h22.5c2.7,0,5.3-1.5,6.6-3.8l7.2-12.5c.5-.8.8-2.3.7-3.2-.7-6.5-4.3-12.4-10.2-15.8Z"/>
  <path class="st0" d="M29.4,45.3c2.1-1.2,3.9-2.7,5.3-4.5.3-.4,0-1-.5-1h-9.3c-.6,0-1.2-.2-1.5-.8l-5-8.5c-5-8.2-5-16.5-1.5-23.5,1.2-2.3,2.8-4.2,4.5-5.8.4-.4.1-1-.4-1h-1.4c-3.1,0-5.9,1.7-7.5,4.4L1,24c-1.4,2.4-1.3,5.3,0,7.7l7.3,12.7c.5.8,1.6,1.8,2.5,2.2,5.8,2.5,12.7,2.1,18.6-1.3Z"/>
</svg>
